img/copy.svg

<svg fill="none" height="800" viewBox="0 0 24 24" width="800" xmlns="http://www.w3.org/2000/svg">
    <g fill="#ffffff">
        <path d="m15.24 2h-3.8942c-1.76421-.00001-3.16162-.00003-4.25526.1476-1.12553.15193-2.03652.47204-2.75495 1.19336-.71842.72131-1.03726 1.63596-1.18858 2.76601-.14704 1.09803-.14702 2.50105-.14701 4.27233v5.8376c0 1.5081.91995 2.8005 2.22717 3.3423-.06728-.9094-.06723-2.1855-.06717-3.2472v-4.9144-.0952c-.00007-1.2817-.00014-2.38596.11828-3.27029.12691-.94773.41311-1.85619 1.14702-2.59305.73391-.73687 1.63874-1.02421 2.58268-1.15163.88079-.11889 1.98072-.11883 3.25722-.11876l.0948.00001h2.88l.0948-.00001c1.2765-.00007 2.374-.00013 3.2548.11876-.5269-1.33964-1.828-2.28743-3.3496-2.28743z"/>
        <path d="m6.6001 11.3974c0-2.72621 0-4.0893.84353-4.93622s2.20118-.84692 4.91647-.84692h2.88c2.7153 0 4.0729 0 4.9165.84692.8435.84692.8435 2.21002.8435 4.93622v4.8193c0 2.7262 0 4.0893-.8435 4.9362-.8436.8469-2.2012.8469-4.9165.8469h-2.88c-2.71529 0-4.07294 0-4.91647-.8469s-.84353-2.21-.84353-4.9362z"/>
    </g>
</svg>

<?xml version="1.0" encoding="utf-8"?><!-- Uploaded to: SVG Repo, www.svgrepo.com, Generator: SVG Repo Mixer Tools -->
<svg width="800px" height="800px" viewBox="0 0 24 24" fill="none" xmlns="http://www.w3.org/2000/svg">
    <path d="M15.24 2H11.3458C9.58159 1.99999 8.18418 1.99997 7.09054 2.1476C5.96501 2.29953 5.05402 2.61964 4.33559 3.34096C3.61717 4.06227 3.29833 4.97692 3.14701 6.10697C2.99997 7.205 2.99999 8.60802 3 10.3793V16.2169C3 17.725 3.91995 19.0174 5.22717 19.5592C5.15989 18.6498 5.15994 17.3737 5.16 16.312L5.16 11.3976L5.16 11.3024C5.15993 10.0207 5.15986 8.91644 5.27828 8.03211C5.40519 7.08438 5.69139 6.17592 6.4253 5.43906C7.15921 4.70219 8.06404 4.41485 9.00798 4.28743C9.88877 4.16854 10.9887 4.1686 12.2652 4.16867L12.36 4.16868H15.24L15.3348 4.16867C16.6113 4.1686 17.7088 4.16854 18.5896 4.28743C18.0627 2.94779 16.7616 2 15.24 2Z"
          fill="#FFFFFF"/>
    <path d="M6.6001 11.3974C6.6001 8.67119 6.6001 7.3081 7.44363 6.46118C8.28716 5.61426 9.64481 5.61426 12.3601 5.61426H15.2401C17.9554 5.61426 19.313 5.61426 20.1566 6.46118C21.0001 7.3081 21.0001 8.6712 21.0001 11.3974V16.2167C21.0001 18.9429 21.0001 20.306 20.1566 21.1529C19.313 21.9998 17.9554 21.9998 15.2401 21.9998H12.3601C9.64481 21.9998 8.28716 21.9998 7.44363 21.1529C6.6001 20.306 6.6001 18.9429 6.6001 16.2167V11.3974Z"
          fill="#FFFFFF"/>
</svg>
